X:1
T:Shine Calm and Bright, Ye Moonbeams Light
T:George P. Grantham (1833-?)
T:Shine Calm and Bright, Ye Moonbeams Light
T:Public Domain
T:Public Domain
T:Public Domain
C:George P. Grantham (1833-?)
Z:Public Domain
%%score ( 1 2 ) ( 3 4 )
L:1/8
M:6/4
K:G
V:1 treble 
V:2 treble 
V:3 bass 
V:4 bass 
V:1
"^Moderato" [B,D]2 | [DB]4 [DB]2 (B2 A2) [DG]2 | [CE]4 [CG]2 D4 D2 | [DG]4 [GB]2 ([GB]3 [FA]) G2 | %4
w: 1.~Shine|calm and bright, * ye|beams light, O’er Beth-|in slum- ber, * O’er|
w: 2.~The|crowds who sleep * in|le’em’s walls Both ci-|and strang- er, * From|
w: 3.~To|us, sweet Babe! * Thy|y crib Than cost-|is dear- er, * It|
 [DF]2 [DA]4 z4 D2 | [DB]4 [Bd]2 ([Ac]2 [GB]2) [FA]2 | G4 E2 [B,D]4 D2 | (G3 F) [DG]2 [FB]4 [FA]2 | %8
w: and old, o’er|gess bold, And * guests|in good- ly num-|tered * safe from win-|
w: al blood a-|have sprung, And * spurn|the hum- ble man-|one * day must wend|
w: to make Thee|our own, To * bring|the God- head near-|to * show Thy sym-|
 [FA]2 G4 z4 [FA]2 | [EA]4 [^CE]2 [CE]4 [EG]2 | [^CG]4 [DF]2 [DF]4 [FA]2 | %11
w: frost, Well housed|warm all lie, Se-|cure from snow in|
w: way, Heav- ing|lat- est sigh, To|mor- tal doom in|
w: thy For hu-|grief and pain, And|makes us long to|
 ([GB]2 [FA]2) [EG]2 ([DF]2 [EG]2) [^CE]2 | D6 z4 D2 | [GB]4 [Gd]2 (d2 c2) [GB]2 | %14
w: street * be- low, * And|screened from|sky. But Babe * be-|
w: lone- * some tomb, * And|in cor-|lie. But Babe * be-|
w: raise * the song * Of|No- el|gain! O Babe * be-|
 [EA]4 E2 [DF]4 [DG]2 | (G3 F) [DG]2 [FB]4 [FA]2 | G6 z4 | [DF]2 | [FA]4 [GA]2 [FA]4 [DB]2 | %19
w: No couch is Thine,|low- * ly man- ger|Where|winds|blow on Thy form|
w: No power ma- lign|o- * ver Thee bear|Thy|of|light in the hea-|
w: Thy love di- vine|round * us, day by|Sweet|of|li- ght! Be Thou|
 [FA]4 (AG) [DF]4 [GB]2 | ([GB]2 [FA]2) [EG]2 ([DF]2 [EG]2) [^CE]2 | D6 z4 D2 | %22
w: di- vine, * Who com-|to * save us * all.||
w: vens bright * Shall glow|e- * ter- nal * day!||
w: our might, * Our ge-|le * King for * aye!||
 [GB]4 [Gd]2 [Ad]2 [Ac]2 [GB]2 | [EA]4 E2 [DF]4 [DG]2 | [DG]3 [DF] [DG]2 [FB]4 [FA]2 | G6- G4 |] %26
w: ||||
w: ||||
w: ||||
V:2
 x2 | x6 D4 x2 | x6 D4 D2 | x10 G2 | x10 D2 | x12 | G4 E2 x2 D2 x2 | D4 x8 | x2 G4 x6 | x12 | x12 | %11
w: |moon-|le’em’s town|young|bur-||ber; For shel-|ter’s|and|||
w: |Beth-|ti- zen|roy-|like||ger. But all|their|their|||
w: |lowl-|ly couch|seems|more||er! It seems|pa-|man|||
 x12 | D6 D2 x4 | x6 A4 x2 | x4 E2 x6 | D4 x8 | G6 x4 | x2 | x12 | x4 E2 x6 | x12 | D6 D2 x4 | %22
w: |froz- en|nign!|Save|stall,|cold|||est|||
w: |rupt- ion|nign!|Shall|sway;|life|||in|||
w: |o’er a-|nign!|Shed|day;|Child|||nt-|||
 x12 | x4 E2 x6 | x12 | G6- G4 |] %26
w: ||||
w: ||||
w: ||||
V:3
 G,2 | G,4 [G,B,]2 [F,C]4 [G,B,]2 | [C,G,]4 [E,G,]2 [G,B,]4 D2 | %3
 [B,D]4 [G,D]2 ([G,D]3 [D,C]) [D,B,]2 | [D,A,]2 [D,C]4 z4 [F,C]2 | %5
 [G,B,]4 [G,B,]2 (F,2 G,2) [D,D]2 | [B,,D]4 [C,G,]2 [G,,G,]4 [G,B,]2 | %7
 ([G,B,]3 [A,C]) [B,D]2 D4 [D,C]2 | [D,C]2 [G,B,]4 z4 [D,D]2 | [A,^C]4 [A,,A,]2 [A,,A,]4 [^C,A,]2 | %10
 [E,A,]4 [D,A,]2 [D,A,]4 [D,D]2 | [D,D]4 [G,,B,]2 [A,,A,]4 [A,,G,]2 | [D,F,]6 z4 [G,B,]2 | %13
 [G,D]4 [G,B,]2 [F,D]4 [G,D]2 | [C,C]4 [C,A,]2 [D,A,]4 [G,B,]2 | [D,A,]4 [G,B,]2 [D,D]4 [D,C]2 | %16
 [G,,G,B,]6 z4 | [D,A,]2 | [D,D]4 [E,^C]2 [F,D]4 [G,D]2 | [A,D]4 [A,^C]2 [B,D]4 [G,D]2 | %20
 [D,D]4 [G,,B,]2 [A,,A,]4 (A,G,) | [D,F,]6 z4 [G,B,]2 | [G,D]4 [G,B,]2 [F,D]2 [F,D]2 [G,D]2 | %23
 [C,C]4 [C,A,]2 [D,A,]4 [G,B,]2 | [D,A,]3 [D,A,] [G,B,]2 [D,D]4 [D,C]2 | [G,,B,]6- [G,,B,]4 |] %26
V:4
 G,2 | G,4 x8 | x10 D2 | x12 | x12 | x6 D4 x2 | x12 | x6 D4 x2 | x12 | x12 | x12 | x12 | x12 | %13
 x12 | x12 | x12 | x10 | x2 | x12 | x12 | x10 A,,2 | x12 | x12 | x12 | x12 | x10 |] %26

